svg/editor/translate_2_line.svg

<?xml version="1.0" encoding="UTF-8"?>
<svg width="24px" height="24px" viewBox="0 0 24 24" version="1.1" xmlns="http://www.w3.org/2000/svg" xmlns:xlink="http://www.w3.org/1999/xlink">
    <title>translate_2_line</title>
    <g id="Icon" stroke="none" stroke-width="1" fill="none" fill-rule="evenodd">
        <g id="Editor" transform="translate(-960.000000, -192.000000)">
            <g id="translate_2_line" transform="translate(960.000000, 192.000000)">
                <path d="M24,0 L24,24 L0,24 L0,0 L24,0 Z M12.5935,23.2578 L12.5819,23.2595 L12.5109,23.295 L12.4919,23.2987 L12.4767,23.295 L12.4057,23.2595 C12.3958,23.2564 12.387,23.259 12.3821,23.2649 L12.378,23.2758 L12.3609,23.7031 L12.3659,23.7235 L12.3769,23.7357 L12.4805,23.8097 L12.4953,23.8136 L12.5071,23.8097 L12.6107,23.7357 L12.6233,23.7197 L12.6267,23.7031 L12.6096,23.2758 C12.6076,23.2657 12.601,23.2593 12.5935,23.2578 Z M12.8584,23.1453 L12.8445,23.1473 L12.6598,23.2397 L12.6499,23.2499 L12.6472,23.2611 L12.6651,23.6906 L12.6699,23.7034 L12.6784,23.7105 L12.8793,23.8032 C12.8914,23.8069 12.9022,23.803 12.9078,23.7952 L12.9118,23.7812 L12.8777,23.1665 C12.8753,23.1546 12.8674,23.147 12.8584,23.1453 Z M12.143,23.1473 C12.1332,23.1424 12.1222,23.1453 12.1156,23.1526 L12.1099,23.1665 L12.0758,23.7812 C12.0751,23.7927 12.0828,23.8019 12.0926,23.8046 L12.1083,23.8032 L12.3092,23.7105 L12.3186,23.7024 L12.3225,23.6906 L12.3404,23.2611 L12.3372,23.2485 L12.3278,23.2397 L12.143,23.1473 Z" id="MingCute" fill-rule="nonzero"></path>
                <path d="M8.99978,3 C9.51261143,3 9.93528653,3.38604429 9.9930522,3.88337975 L9.99978,4 L9.99978,5 L13.9998,5 C14.5521,5 14.9998,5.44772 14.9998,6 C14.9998,6.51283143 14.613773,6.93550653 14.1164239,6.9932722 L13.9998,7 L12.945,7 C12.7224,9.03228 11.8288,10.9904 10.4002,12.6883 C10.9225333,13.1416333 11.5015333,13.5662861 12.1347116,13.9542144 L12.5211,14.1825 L14.5879,9.58964 C14.7493,9.23078 15.1063,9 15.4998,9 C15.8495778,9 16.170437,9.18234469 16.3508475,9.47490458 L16.4117,9.58964 L20.9117,19.5896 C21.1383,20.0933 20.9138,20.6853 20.4101,20.9119 C19.9424714,21.1224071 19.3986204,20.9437832 19.1418846,20.5139811 L19.0879,20.4104 L18.0032,18 L12.9964,18 L11.9117,20.4104 C11.6851,20.914 11.0931,21.1386 10.5894,20.9119 C10.1217714,20.7014857 9.89472643,20.1760071 10.04617,19.6987219 L10.0879,19.5896 L11.6971,16.0134 C10.7004,15.4609 9.79675,14.8235 8.99878,14.1192 C7.71098,15.2551 6.14982,16.217 4.37117,16.9285 C3.85838,17.1336 3.27641,16.8842 3.0713,16.3714 C2.86619,15.8586 3.1156,15.2766 3.62839,15.0715 C5.18516,14.4488 6.51549,13.6309 7.59985,12.6896 C6.73398,11.6593 6.06517,10.5328 5.62199,9.35116 C5.42805,8.83405 5.69004,8.25762 6.20715,8.06368 C6.72426,7.86974 7.30068,8.13173 7.49462,8.64884 C7.83061,9.5447 8.33608,10.4214 8.99995,11.2435 C9.98883214,10.0167829 10.6250992,8.66770454 10.8770053,7.31273648 L10.9283,7 L3.99978,7 C3.44749,7 2.99978,6.55228 2.99978,6 C2.99978,5.48716857 3.38581566,5.06449347 3.8831579,5.0067278 L3.99978,5 L7.99978,5 L7.99978,4 C7.99978,3.44772 8.44749,3 8.99978,3 Z M17.1032,16 L15.4998,12.4369 L13.8983,16 L13.8983,16 L17.1032,16 Z" id="形状" fill="#09244B"></path>
            </g>
        </g>
    </g>
</svg>

<svg xmlns="http://www.w3.org/2000/svg" width="24" height="24"><g fill="none" fill-rule="evenodd"><path d="M24 0v24H0V0h24ZM12.594 23.258l-.012.002-.071.035-.02.004-.014-.004-.071-.036c-.01-.003-.019 0-.024.006l-.004.01-.017.428.005.02.01.013.104.074.015.004.012-.004.104-.074.012-.016.004-.017-.017-.427c-.002-.01-.009-.017-.016-.018Zm.264-.113-.014.002-.184.093-.01.01-.003.011.018.43.005.012.008.008.201.092c.012.004.023 0 .029-.008l.004-.014-.034-.614c-.003-.012-.01-.02-.02-.022Zm-.715.002a.023.023 0 0 0-.027.006l-.006.014-.034.614c0 .012.007.02.017.024l.015-.002.201-.093.01-.008.003-.011.018-.43-.003-.012-.01-.01-.184-.092Z"/><path fill="#09244B" d="M9 3a1 1 0 0 1 .993.883L10 4v1h4a1 1 0 0 1 .116 1.993L14 7h-1.055c-.223 2.032-1.116 3.99-2.545 5.688.523.454 1.102.878 1.735 1.266l.386.228 2.067-4.592a1 1 0 0 1 1.763-.115l.06.115 4.5 10a1 1 0 0 1-1.77.924l-.053-.104L18.003 18h-5.007l-1.084 2.41a1 1 0 0 1-1.866-.711l.042-.11 1.61-3.576c-.998-.552-1.901-1.19-2.7-1.894-1.287 1.136-2.848 2.098-4.627 2.81a1 1 0 1 1-.743-1.857c1.557-.623 2.887-1.441 3.972-2.382A11.466 11.466 0 0 1 5.622 9.35a1 1 0 0 1 1.873-.702A9.41 9.41 0 0 0 9 11.244c.989-1.227 1.625-2.576 1.877-3.931L10.928 7H4a1 1 0 0 1-.117-1.993L4 5h4V4a1 1 0 0 1 1-1Zm8.103 13L15.5 12.437 13.898 16h3.205Z"/></g></svg>
